app/dist/common/images/chromadex.svg

<svg fill="none" height="18" viewBox="0 0 18 18" width="18" xmlns="http://www.w3.org/2000/svg"><path d="m0 0h18v18h-18z" fill="#f0f3fa"/><path d="m11.6059 10.08c-.2027.5132-.5487.952-.9937 1.2602-.4449.3082-.96854.4718-1.50377.4698-.72392 0-1.38027-.2925-1.8653-.77-.8687.21-1.66259.4075-2.27792.565.43411.7341 1.04332 1.34 1.76896 1.7595.72565.4194 1.5433.6383 2.37426.6355 2.43957 0 4.45687-1.85 4.78507-4.24997-.5333.025-1.3465.15-2.2876.32997z" fill="#003959"/><path d="m7.24313 6.96002c.48261-.475 1.13897-.7725 1.8653-.7725 1.13417 0 2.10177.72 2.49747 1.7325.7556.15703 1.5194.26722 2.2876.33-.3282-2.39999-2.3455-4.24999-4.78507-4.24999-1.76154 0-3.29865.96-4.14322 2.39749.61533.155 1.40922.3525 2.27792.5625z" fill="#003959"/><path d="m9.41007 8.06997c-3.63406-1.405-4.03463-3.26999-.47779-4.04499-2.62057.0525-4.93228 2.26499-4.93228 4.98749v.0025c0 2.72253 2.30688 4.93503 4.92987 4.98503-3.55925-.775-3.15386-2.635.4802-4.03754 2.02213-.7825 4.58993-.93499 4.58993-.93499v-.01s-2.5678-.165-4.58993-.945" fill="#c1cc23"/></svg>

<!-- by TradingView --><svg width="18" height="18" viewBox="0 0 18 18" fill="none" xmlns="http://www.w3.org/2000/svg">
<rect width="18" height="18" fill="#F0F3FA"/>
<path d="M11.6059 10.08C11.4032 10.5932 11.0572 11.032 10.6122 11.3402C10.1673 11.6484 9.64366 11.812 9.10843 11.81C8.38451 11.81 7.72816 11.5175 7.24313 11.04C6.37443 11.25 5.58054 11.4475 4.96521 11.605C5.39932 12.3391 6.00853 12.945 6.73417 13.3645C7.45982 13.7839 8.27747 14.0028 9.10843 14C11.548 14 13.5653 12.15 13.8935 9.75003C13.3602 9.77503 12.547 9.90003 11.6059 10.08Z" fill="#003959"/>
<path d="M7.24313 6.96002C7.72574 6.48502 8.3821 6.18752 9.10843 6.18752C10.2426 6.18752 11.2102 6.90752 11.6059 7.92002C12.3615 8.07705 13.1253 8.18724 13.8935 8.25002C13.5653 5.85003 11.548 4.00003 9.10843 4.00003C7.34689 4.00003 5.80978 4.96003 4.96521 6.39752C5.58054 6.55252 6.37443 6.75002 7.24313 6.96002Z" fill="#003959"/>
<path d="M9.41007 8.06997C5.77601 6.66497 5.37544 4.79998 8.93228 4.02498C6.31171 4.07748 4 6.28997 4 9.01247V9.01497C4 11.7375 6.30688 13.95 8.92987 14C5.37062 13.225 5.77601 11.365 9.41007 9.96246C11.4322 9.17996 14 9.02747 14 9.02747V9.01747C14 9.01747 11.4322 8.85247 9.41007 8.07247" fill="#C1CC23"/>
</svg>
